Adwaita++-Light/panel/24/odrive-tray-sync.svg

<svg height="24" width="24" xmlns="http://www.w3.org/2000/svg">
  <path d="m9 4 5.302734 9.642578a5 5 0 0 1 3.697266-1.642578 5 5 0 0 1 2.072266.455078l-5.072266-8.455078zm-.5 1-5.5 10 3 5 5.5-9.5zm9.5 8c-2.2091 0-4 1.7909-4 4s1.7909 4 4 4 4-1.7909 4-4-1.7909-4-4-4zm0 1a3 3 0 0 1 3 3h-1a2 2 0 0 0 -2-2zm-4.583984 1.005859-3.416016.003907-3 4.990234h7.007812a5 5 0 0 1 -1.007812-3 5 5 0 0 1 .416016-1.994141zm1.583984 1.994141h1a2 2 0 0 0 2 2v1a3 3 0 0 1 -3-3z" fill="#444"/>
</svg>

<svg xmlns="http://www.w3.org/2000/svg" width="24" height="24" version="1.1">
 <defs>
  <style id="current-color-scheme" type="text/css">
   .ColorScheme-Text { color:#444444; } .ColorScheme-Highlight { color:#4285f4; }
  </style>
 </defs>
 <path style="fill:currentColor" class="ColorScheme-Text" d="m 9,4 5.302734,9.642578 A 5,5 0 0 1 18,12 5,5 0 0 1 20.072266,12.455078 L 15,4 Z M 8.5,5 3,15 l 3,5 5.5,-9.5 z m 9.5,8 c -2.2091,0 -4,1.7909 -4,4 0,2.2091 1.7909,4 4,4 2.2091,0 4,-1.7909 4,-4 0,-2.2091 -1.7909,-4 -4,-4 z m 0,1 a 3,3 0 0 1 3,3 H 20 A 2,2 0 0 0 18,15 Z M 13.416016,15.005859 10,15.009766 7,20 h 7.007812 A 5,5 0 0 1 13,17 5,5 0 0 1 13.416016,15.005859 Z M 15,17 h 1 a 2,2 0 0 0 2,2 v 1 a 3,3 0 0 1 -3,-3 z"/>
</svg>
